docs/public/img/adapters/mongodb.svg

<svg width="120" height="258" viewBox="0 0 120 258" fill="none" xmlns="http://www.w3.org/2000/svg">
  <path d="M83.0089 28.7559C72.1328 15.9086 62.7673 2.86053 60.8539 0.150554C60.6525 -0.0501848 60.3503 -0.0501848 60.1489 0.150554C58.2355 2.86053 48.8699 15.9086 37.9938 28.7559C-55.3594 147.292 52.6968 227.287 52.6968 227.287L53.6031 227.889C54.4087 240.235 56.4228 258 56.4228 258H60.451H64.4792C64.4792 258 66.4934 240.335 67.299 227.889L68.2052 227.187C68.306 227.187 176.362 147.292 83.0089 28.7559ZM60.451 225.48C60.451 225.48 55.6172 221.365 54.3081 219.257V219.057L60.1489 89.9813C60.1489 89.5798 60.7532 89.5798 60.7532 89.9813L66.594 219.057V219.257C65.2848 221.365 60.451 225.48 60.451 225.48Z" fill="#00684A"/>
</svg>

<svg xmlns="http://www.w3.org/2000/svg" fill="none" viewBox="0 0 120 256"><path fill="#00684A" d="M83 28.8A458 458 0 0 1 61 .2a.5.5 0 0 0-.8 0A458 458 0 0 1 38 28.8c-93.4 118.5 14.7 198.5 14.7 198.5l.9.6c.8 12.3 2.8 30.1 2.8 30.1h8s2-17.7 2.9-30.1l1-.7s108-80 14.7-198.4ZM60.5 225.5s-4.9-4.1-6.2-6.2v-.2L60.1 90c0-.4.7-.4.7 0l5.8 129v.3c-1.3 2-6.1 6.2-6.1 6.2Z"/></svg>
